svgs/finanzguru.svg

<svg width="192" height="192" viewBox="0 0 192 192" fill="none" xmlns="http://www.w3.org/2000/svg">
<path d="M116.57 127.559C116.69 147.25 105.823 161.244 100.807 166.644L97.4867 170L92.8242 163.69C91.5122 161.655 89.1386 158.323 84.5583 152.172C75.3003 139.727 75.852 127.743 75.852 127.559C76.0189 117.598 84.8967 109.562 95.9025 109.411C107.149 109.256 116.398 117.384 116.57 127.559Z" stroke="black" stroke-width="12" stroke-linecap="round" stroke-linejoin="round"/>
<path d="M110.611 95.5034C110.611 97.6913 108.826 99.4766 106.638 99.4766C104.45 99.4766 102.665 97.6913 102.665 95.5034C102.665 93.3156 104.45 91.5303 106.638 91.5303C108.826 91.5303 110.611 93.3156 110.611 95.5034Z" fill="black"/>
<path d="M88.8057 95.522C88.8057 97.7246 87.0083 99.522 84.8057 99.522C82.603 99.522 80.8057 97.7246 80.8057 95.522C80.8057 93.3193 82.603 91.522 84.8057 91.522C87.0083 91.522 88.8057 93.3193 88.8057 95.522Z" fill="black"/>
<path d="M95.0773 59.4811C115.938 78.3891 120.899 93.3431 120.948 93.4957C121.149 94.1014 121.708 94.5101 122.345 94.5101C122.536 94.5051 122.722 94.4658 122.899 94.3919L123.232 94.254C123.752 94.0472 124.109 93.5598 124.153 93.0033L127.496 54.2913C127.505 48.7596 126.097 43.3282 123.417 38.516M95.0773 59.4811C89.1905 64.73 83.7938 70.5107 78.9609 76.7543C71.3732 86.7253 69.1871 93.4022 69.1577 93.4662C68.9371 94.1408 68.2803 94.5692 67.5794 94.4953C66.8736 94.4214 66.3197 93.8503 66.2658 93.1412L62.9327 54.5571C62.8984 36.8408 76.9904 22.3644 94.6214 22C94.8469 22 95.0037 22 95.2096 22C106.326 22 116.659 27.6084 122.56 37.0722L122.634 37.1805C122.658 37.215 122.678 37.2495 122.698 37.2889C122.947 37.6931 123.187 38.1023 123.417 38.516M95.0773 59.4811C102.484 53.0701 112.591 45.2263 120.889 40.0266L123.417 38.516" stroke="black" stroke-width="12" stroke-linecap="round" stroke-linejoin="round"/>
<path d="M64.9199 74.6441V74.6146C65.0952 74.2022 69.3632 64.3033 80.8125 50.8052" stroke="black" stroke-width="6" stroke-linecap="round" stroke-linejoin="round"/>
<path d="M139.732 127.652C135.203 132.73 128.724 135.624 121.925 135.608C109.673 135.577 99.6035 126.291 98.3232 114.376" stroke="black" stroke-width="8" stroke-linecap="round" stroke-linejoin="round"/>
<path d="M53 127.652C61.7599 137.45 76.7985 138.29 86.5985 129.527C90.9966 125.591 93.7551 120.184 94.3892 114.376" stroke="black" stroke-width="8" stroke-linecap="round" stroke-linejoin="round"/>
</svg>

<svg xmlns="http://www.w3.org/2000/svg" width="192" height="192" fill="none" viewBox="0 0 192 192"><path stroke="#000" stroke-linecap="round" stroke-linejoin="round" stroke-width="12" d="M116.57 127.559c.12 19.691-10.747 33.685-15.763 39.085L97.487 170l-4.663-6.31c-1.312-2.035-3.685-5.367-8.266-11.518-9.258-12.445-8.706-24.429-8.706-24.613.167-9.961 9.045-17.997 20.05-18.148 11.247-.155 20.496 7.973 20.668 18.148"/><path fill="#000" d="M110.611 95.503a3.98 3.98 0 0 1-3.973 3.974 3.98 3.98 0 0 1-3.973-3.974 3.98 3.98 0 0 1 3.973-3.973 3.98 3.98 0 0 1 3.973 3.973m-21.805.019c0 2.203-1.798 4-4 4s-4-1.797-4-4 1.797-4 4-4c2.202 0 4 1.797 4 4"/><path stroke="#000" stroke-linecap="round" stroke-linejoin="round" stroke-width="12" d="M95.077 59.481c20.861 18.908 25.822 33.862 25.871 34.015.201.605.76 1.014 1.397 1.014q.287-.007.554-.118l.333-.138c.52-.207.877-.694.921-1.25l3.343-38.713a32.3 32.3 0 0 0-4.079-15.775m-28.34 20.965a128.7 128.7 0 0 0-16.116 17.273c-7.588 9.971-9.774 16.648-9.803 16.712a1.474 1.474 0 0 1-2.892-.325l-3.333-38.584C62.898 36.841 76.99 22.364 94.62 22h.589c11.116 0 21.449 5.608 27.35 15.072l.074.108a1 1 0 0 1 .064.109q.374.606.719 1.227m-28.34 20.965c7.407-6.41 17.514-14.255 25.812-19.454l2.528-1.511"/><path stroke="#000" stroke-linecap="round" stroke-linejoin="round" stroke-width="6" d="M64.92 74.644v-.03c.175-.412 4.443-10.31 15.892-23.809"/><path stroke="#000" stroke-linecap="round" stroke-linejoin="round" stroke-width="8" d="M139.732 127.652a23.78 23.78 0 0 1-17.807 7.956c-12.252-.031-22.321-9.317-23.602-21.232M53 127.652c8.76 9.798 23.799 10.638 33.599 1.875a23.8 23.8 0 0 0 7.79-15.151"/></svg>
